X: 1
T: Joys Of Wedlock, The
M: 6/8
L: 1/8
R: jig
K: Gmaj
|:GAG GBd|gfe d2c|Bdg dBG|FAA A2D|
GAG GBd|gfe d2c|BdB cAF|GAG G3:|
|:Bdg dBG|Bdg d2c|Bdg dBG|FAA A2c|
Bdd def|gfe fdc|B/2c/2dB cAF|GAG G3:||
